images/taxi.svg

<?xml version="1.0" encoding="UTF-8" standalone="no"?>
<svg xmlns:dc="http://purl.org/dc/elements/1.1/" xmlns:cc="http://creativecommons.org/ns#" xmlns:rdf="http://www.w3.org/1999/02/22-rdf-syntax-ns#" xmlns:svg="http://www.w3.org/2000/svg" xmlns="http://www.w3.org/2000/svg" xmlns:sodipodi="http://sodipodi.sourceforge.net/DTD/sodipodi-0.dtd" xmlns:inkscape="http://www.inkscape.org/namespaces/inkscape" version="1.1" width="14" height="14" viewBox="0 0 14 14" id="svg2" sodipodi:docname="taxi.svg" inkscape:version="0.92.4 (5da689c313, 2019-01-14)">
  <sodipodi:namedview pagecolor="#ffffff" bordercolor="#666666" borderopacity="1" objecttolerance="10" gridtolerance="10" guidetolerance="10" inkscape:pageopacity="0" inkscape:pageshadow="2" inkscape:window-width="1881" inkscape:window-height="1051" id="namedview12028" showgrid="true" inkscape:pagecheckerboard="true" inkscape:zoom="16.857143" inkscape:cx="7" inkscape:cy="7" inkscape:window-x="0" inkscape:window-y="0" inkscape:window-maximized="1" inkscape:current-layer="svg2">
    <inkscape:grid type="xygrid" id="grid12573" units="px" spacingx="1" spacingy="1" />
  </sodipodi:namedview>
  <metadata id="metadata8">
    <rdf:RDF>
      <cc:Work rdf:about="">
        <dc:format>image/svg+xml</dc:format>
        <dc:type rdf:resource="http://purl.org/dc/dcmitype/StillImage" />
        <dc:title></dc:title>
      </cc:Work>
    </rdf:RDF>
  </metadata>
  <defs id="defs6" />
  <path id="path12575" d="M 5.96875,0 C 5.429431,0 5,0.4876472 5,1 L 4.96875,2 H 3 L 1.75,6 C 0.989697,6 0,6.4966359 0,8 V 12 H 2 V 13 C 2,13 2,14 3,14 C 4,14 4,13 4,13 V 12 L 10,11.96875 V 13 C 10,13 10,14 11,14 C 12,14 12,13 12,13 V 12 H 14 V 8 C 14,6.4726661 13,6 12,6 L 11,2 H 9 V 1 C 9,0.4337153 8.566285,0 8,0 Z" style="opacity:0.5;fill:#e7e7e7;stroke:#f6f6f6;stroke-width:3;stroke-linecap:round;stroke-linejoin:round;stroke-miterlimit:4;stroke-dasharray:none;stroke-opacity:1;fill-opacity:1" inkscape:connector-curvature="0" sodipodi:nodetypes="sccccscccsccccscccscccsss" />
  <rect width="14" height="14" x="0" y="0" id="canvas" style="fill:none;stroke:none;visibility:hidden" />
  <path d="M 5.96875,0 C 5.429431,0 5,0.4876472 5,1 L 4.96875,2 3,2 1.75,6 C 0.989697,6 0,6.4966359 0,8 l 0,4 2,0 0,1 c 0,0 0,1 1,1 1,0 1,-1 1,-1 L 4,12 10,11.96875 10,13 c 0,0 0,1 1,1 1,0 1,-1 1,-1 l 0,-1 2,0 0,-4 C 14,6.4726661 13,6 12,6 L 11,2 9,2 9,1 C 9,0.4337153 8.566285,0 8,0 L 5.96875,0 z M 6,1 8,1 8,2 6,2 6,1 z M 4,3.5 10,3.5 10.59375,6 3.3125,6 4,3.5 z M 3,8 C 3.552285,8 4,8.447715 4,9 4,9.552285 3.552285,10 3,10 2.447715,10 2,9.552285 2,9 2,8.447715 2.447715,8 3,8 z m 8,0 c 0.552285,0 1,0.447715 1,1 0,0.552285 -0.447715,1 -1,1 -0.552285,0 -1,-0.447715 -1,-1 0,-0.552285 0.447715,-1 1,-1 z" id="taxi" />
</svg>

<svg xmlns="http://www.w3.org/2000/svg" width="14" height="14">
    <path d="M5.969 0C5.429 0 5 .488 5 1l-.031 1H3L1.75 6C.99 6 0 6.497 0 8v4h2v1s0 1 1 1 1-1 1-1v-1l6-.031V13s0 1 1 1 1-1 1-1v-1h2V8c0-1.527-1-2-2-2l-1-4H9V1c0-.566-.434-1-1-1z" opacity=".5" fill="#e7e7e7" stroke="#f6f6f6" stroke-width="3" stroke-linecap="round" stroke-linejoin="round"/>
    <path d="M5.969 0C5.429 0 5 .488 5 1l-.031 1H3L1.75 6C.99 6 0 6.497 0 8v4h2v1s0 1 1 1 1-1 1-1v-1l6-.031V13s0 1 1 1 1-1 1-1v-1h2V8c0-1.527-1-2-2-2l-1-4H9V1c0-.566-.434-1-1-1H5.969zM6 1h2v1H6V1zM4 3.5h6l.594 2.5H3.313L4 3.5zM3 8a1 1 0 110 2 1 1 0 010-2zm8 0a1 1 0 110 2 1 1 0 010-2z"/>
</svg>
